Hatter-kde/actions/22/transform-browse.svg

<svg xmlns="http://www.w3.org/2000/svg" viewBox="0 0 22 22">
  <defs id="defs3051">
    <style type="text/css" id="current-color-scheme">
      .ColorScheme-Text {
        color:#363636;
      }
      </style>
  </defs>
 <path 
    style="fill:currentColor;fill-opacity:1;stroke:none" 
    d="M 14.126982,3.0038504 C 13.505569,3.0415274 13.080397,3.4316667 12.781275,3.9145002 12.454921,2.727961 10.142268,2.6537403 9.6797049,4.3355534 9.3162369,3.9442109 8.8522199,3.6732291 8.2675918,3.7147448 l -0.023437,0 C 7.175073,3.8083685 6.418488,4.7485269 6.6015719,5.7788845 L 7.5136836,11.09003 C 7.1684365,10.853092 6.749294,10.446909 6.4414152,10.312551 5.7279278,10.001111 5.0748866,9.9620159 4.5488321,10.112795 c -1.0521011,0.301416 -1.367191,1.28666 -1.367191,1.28666 L 3,11.910594 3.4550793,12.221977 c 1.0044804,0.660697 2.0235654,2.262292 2.9863359,3.754228 0.4813889,0.745932 0.9608876,1.451139 1.5058633,2.021055 0.5449754,0.569989 1.1629057,1.007884 1.9941458,1.002694 l 0.013672,0 c 2.3334387,-0.0012 4.6665787,2.29e-4 7.0000177,0 l 0.181642,0 0.02344,-0.66781 c 0,0 0.06423,-1.240581 0.181641,-2.710407 0.11744,-1.469828 0.299423,-3.184207 0.501955,-3.977484 l 1.095702,-4.2869086 c 0.315654,-1.1777963 -0.646459,-2.3108801 -1.892582,-2.2208108 -0.382441,0.021326 -0.720257,0.1853211 -1.003909,0.399511 l 0.02148,-0.6443093 C 16.135853,3.8156678 15.231546,2.9343257 14.126982,3.0038504 Z m -2.873055,0.708936 0,0.00196 c 0.580564,-0.035544 1.138982,0.454028 1.162114,1.0203196 l 0.27539,4.9096759 c 0.01547,0.2776719 0.192309,0.2743014 0.205079,0.0235 l 0.25,-4.9331766 c 0.02138,-0.52179 0.490357,-0.9900037 1.025394,-1.0222779 0.618961,-0.039099 1.204053,0.5308617 1.164065,1.133906 l -0.273438,5.3973186 c -0.0082,0.162152 0.03913,0.241965 0.08984,0.04504 l 0.935552,-3.6210561 c 0.10664,-0.4444456 0.536166,-0.7964331 1.00391,-0.8225225 0.691479,-0.049763 1.315787,0.6800733 1.140628,1.3336615 L 17.136756,11.46604 c -0.439844,1.722894 -0.661734,6.018016 -0.687502,6.53122 L 10,18 l 0,0 c -2.1165108,-0.02144 -3.663954,-4.752128 -6.1347634,-6.377289 0,0 0.8905306,-2.5556514 4.5390744,0.998777 0,0 0.025599,-0.118762 0.068359,-0.287883 C 8.445963,12.247095 8.429444,12.155517 8.425795,12.065306 L 7.3320425,5.6672565 C 7.2291901,5.0883825 7.7119638,4.4762864 8.3125138,4.4236808 c 0.545815,-0.038388 1.0837053,0.3830307 1.1621124,0.91065 l 0.7988298,4.664878 c 0.03291,0.1925072 0.264814,0.1421962 0.250001,-0.1096702 L 10.228535,4.8466924 c -0.03692,-0.5585428 0.451921,-1.0999967 1.025392,-1.133906 z"
    class="ColorScheme-Text"
    />  
</svg>

<?xml version="1.0" encoding="UTF-8"?>
<svg viewBox="0 0 22 22" xmlns="http://www.w3.org/2000/svg">
 <defs id="defs3051">
  <style id="current-color-scheme" type="text/css">.ColorScheme-Text {
        color:#363636;
      }</style>
 </defs>
 <path class="ColorScheme-Text" d="m14.127 3.0039c-0.62141 0.037677-1.0466 0.42782-1.3457 0.91065-0.32635-1.1865-2.639-1.2608-3.1016 0.42105-0.36347-0.39134-0.82748-0.66232-1.4121-0.62081h-0.023437c-1.0691 0.093624-1.8257 1.0338-1.6426 2.0641l0.91211 5.3111c-0.34525-0.23694-0.76439-0.64312-1.0723-0.77748-0.71349-0.31144-1.3665-0.35054-1.8926-0.19976-1.0521 0.30142-1.3672 1.2867-1.3672 1.2867l-0.18164 0.51114 0.45508 0.31138c1.0045 0.6607 2.0236 2.2623 2.9863 3.7542 0.48139 0.74593 0.96089 1.4511 1.5059 2.0211 0.54498 0.56999 1.1629 1.0079 1.9941 1.0027h0.013672c2.3334-0.0012 4.6666 2.29e-4 7 0h0.18164l0.02344-0.66781s0.06423-1.2406 0.18164-2.7104c0.11744-1.4698 0.29942-3.1842 0.50196-3.9775l1.0957-4.2869c0.31565-1.1778-0.64646-2.3109-1.8926-2.2208-0.38244 0.021326-0.72026 0.18532-1.0039 0.39951l0.02148-0.64431c0.07137-1.0761-0.83294-1.9574-1.9375-1.8879zm-2.8731 0.70894v0.00196c0.58056-0.035544 1.139 0.45403 1.1621 1.0203l0.27539 4.9097c0.01547 0.27767 0.19231 0.2743 0.20508 0.0235l0.25-4.9332c0.02138-0.52179 0.49036-0.99 1.0254-1.0223 0.61896-0.039099 1.2041 0.53086 1.1641 1.1339l-0.27344 5.3973c-0.0082 0.16215 0.03913 0.24196 0.08984 0.04504l0.93555-3.6211c0.10664-0.44445 0.53617-0.79643 1.0039-0.82252 0.69148-0.049763 1.3158 0.68007 1.1406 1.3337l-1.0957 4.2869c-0.43984 1.7229-0.66173 6.018-0.6875 6.5312l-6.4493 0.00274c-2.1165-0.02144-3.664-4.7521-6.1348-6.3773 0 0 0.89053-2.5557 4.5391 0.99878 0 0 0.025599-0.11876 0.068359-0.28788-0.026707-0.08651-0.043226-0.17809-0.046875-0.2683l-1.0938-6.398c-0.10285-0.57887 0.37992-1.191 0.98047-1.2436 0.54582-0.038388 1.0837 0.38303 1.1621 0.91065l0.79883 4.6649c0.03291 0.19251 0.26481 0.1422 0.25-0.10967l-0.29492-5.0428c-0.03692-0.55854 0.45192-1.1 1.0254-1.1339z" fill="currentColor"/>
</svg>
